svgs/light/blanket.svg

<svg xmlns="http://www.w3.org/2000/svg" viewBox="0 0 448 512"><!-- Font Awesome Pro 6.0.0-alpha2 by @fontawesome - https://fontawesome.com License - https://fontawesome.com/license (Commercial License) --><path d="M392 368H96C87.156 368 80 375.156 80 384S87.156 400 96 400H392C422.875 400 448 374.875 448 344V112C448 67.891 412.125 32 368 32H80C35.875 32 0 67.891 0 112V384C0 436.938 43.062 480 96 480H432C440.844 480 448 472.844 448 464S440.844 448 432 448H96C60.719 448 32 419.297 32 384S60.719 320 96 320H392C405.219 320 416 330.766 416 344S405.219 368 392 368ZM392 288H96C71.324 288 49.023 297.617 32 312.969V112C32 85.531 53.531 64 80 64H368C394.469 64 416 85.531 416 112V293.617C408.697 290.121 400.621 288 392 288Z"/></svg>

<svg xmlns="http://www.w3.org/2000/svg" viewBox="0 0 448 512"><!--! Font Awesome Pro 6.0.0-alpha3 by @fontawesome - https://fontawesome.com License - https://fontawesome.com/license (Commercial License) --><path d="M392 368H96c-8.844 0-16 7.156-16 16s7.156 16 16 16h296c30.88 0 56-25.12 56-56V112C448 67.89 412.1 32 368 32h-288C35.88 32 0 67.89 0 112V384c0 52.94 43.06 96 96 96h336c8.844 0 16-7.156 16-16S440.8 448 432 448H96c-35.28 0-64-28.7-64-64s28.72-64 64-64h296c13.22 0 24 10.77 24 24S405.2 368 392 368zM392 288H96C71.32 288 49.02 297.6 32 312.1V112C32 85.53 53.53 64 80 64h288C394.5 64 416 85.53 416 112v181.6C408.7 290.1 400.6 288 392 288z"/></svg>
